X:1
T:Io vo fuggend' in questa parte
T:Lodovico Agostini
T:Io vo fuggend' in questa parte
C:Lodovico Agostini
%%score [ 1 2 3 4 ]
L:1/8
Q:1/4=80
M:3/4
K:F
V:1 treble nm="Soprano" snm="S"
V:2 alto2 nm="Alto" snm="A"
V:3 alto nm="Tenor" snm="T"
V:4 bass3 nm="Bass" snm="B"
V:1
 z6 |[K:Eb][Q:1/4=120] F2 A2 B2 | c3 d e2 | c2 c2 B2 | B4 c2 | B3 =A/G/ A2 | B4 B2 | B2 c c2 e | %8
w: |Io vo fug-|gend' _ _|in que- sta|part' en|quel- * * *|la, L'ar-|den- te fiamm' e'l|
 d4 e2 |[M:4/4][Q:1/4=80] z2 c2 =B3 B | c2 c2 e3 e | d2 =e2 f4 | d4 z4 | c8 | B4 B4 | A6 A2 | %16
w: fo- co,|Che mi con-|sum' et ard' in|o- gni lo-|co,|Ma|la mia|sor- te|
 A4 A4 | F4 F4 | F8 | F4 z2 G2 | G3 G A2 c2 | c4 c2 A2 | G2 G3 G c2 | =B4 c4 | z2 =A2 B2 B2 | %25
w: di- spie-|tat' e|fel-|la, Con|que- sto mio fug-|gi- re, Non|mi lev' il mar-|ti- re,|Per che la|
 B3 B B2 B2 | c2 c2 c4 | c2 =B2 B2 B2 | c2 c2 B4 | B8 | B4 G4 | F8 | G6 G2 | B2 c2 B4 | c8- | %35
w: nin- fa mia leg-|gia- dra e bel-|la, Mi tien in|me- zo'l cor|ferm'|et in-|ten-|to, La|fiamm' el fo-|co Et|
 c4 B4- | B2 A2 GEGA | B8 | A4 G4- | G4 G4 | z4 G4 | =A6 B2 | B2 F2 d4 | c4 z2 c2- | c2 c2 =B4 | %45
w: _ l'a-|* spro mio _ _ _|_|tor- men-|* to,|Et|pur sa-|ro con- ten-|to, Che|_ mo- ren-|
 c2 A2 G4 | A4 A2 A2 | A2 G2 A4 | F8 | E4 A4 | G6 G2 | F2 B4 A2 | B2 c3 =B/=A/ B2 | c4 z2 c2- | %54
w: do per- lei|l'ar- so mio|co- * re,|Mor-|te non|sen- ti-|ra fiamm' o|do- lo- * * *|re, Che|
 c2 c2 =B4 | c2 A2 G4 | A4 A2 A2 | A2 G2 A4 | F8 | E4 A4 | G6 G2 | F2 B4 A2 | G4 F4- | F2 =ED E4 | %64
w: _ mo- ren-|do per- lei|l'ar- so mio|co- * re,|Mor-|te non|sen- ti-|ra fiamm' o|do- lo-||
 F8 |] %65
w: re.|
V:2
 z6 |[K:Eb][K:treble] F2 F2 G2 | A4 GF | E2 F2 G2 | F2 F4 | F2 F4 | F4 G2 | GG A2 G2 | B4 G2 | %9
w: |Io vo fug-|gend' _ _|_ in que-|sta part'|en quel-|la, L'ar-|den- te fiamm' e'l|fo- co,|
[M:4/4] z2 E2 G3 G | G2 A2 B3 B | B2 B2 =A4 | B4 z4 | z4 A4 | G4 F4 | F6 F2 | F4 E4 | _D4 D4 | C8 | %19
w: Che mi con-|sum' et ard' in|o- gni lo-|co,|Ma|la mia|sor- te|di- spie-|tat' e|fel-|
 D4 z2 E2 | E3 E E2 F2 | =E4 F2 F2 | D2 =E3 E F2 | G4 G2 =E2 | F4 G4 | F3 F F2 G2 | E2 A2 G4 | %27
w: la, Con|que- sto mio fug-|gi- re, Non|mi lev' il mar-|ti- re, Per|che la|nin- fa mia leg-|gia- dra e bel-|
 A2 G2 G2 G2 | G2 A2 F4 | G8 | G4 E4 | D8 | E6 E2 | FG A4 G2 | z4 E4 | E4 E4 | F4 G4 | G6 F2 | E8 | %39
w: la, Mi tien in|me- zo'l cor|ferm'|et in-|ten-|to, La|fiamm' el fo- co,|Et|l'a- spro|mio tor-|men- *||
 D8 | z4 =E4 | F6 F2 | G2 =A2 B4 | =A4 z2 G2- | G2 G2 G4 | G2 F2 =E4 | F4 F2 F2 | E4 E4 | _D8 | %49
w: to,|Et|pur sa-|ro con- ten-|to, Che|_ mo- ren-|do per- lei|l'ar- so mio|co- re,|Mor-|
 C4 E4 | E6 E2 | F4 F4 | G2 F2 G4 | G4 z2 G2- | G2 G2 G4 | G2 F2 =E4 | F4 F2 F2 | E4 E4 | _D8 | %59
w: te non|sen- ti-|ra fiamm'|o do- lo-|re, Che|_ mo- ren-|do per- lei|l'ar- so mio|co- re,|Mor-|
 C4 E4 | E6 E2 | F4 F4 | C4 C4 | C8 | C8 |] %65
w: te non|sen- ti-|ra fiamm'|o do-|lo-|re.|
V:3
 z6 |[K:Eb][K:treble-8] z6 | F2 A2 B2 | c3 d e2- | e2 d2 c2 | _d2 c4 | B2 d2 e2- | ee e2 e2 | %8
w: ||Io vo fug-|gend' in que-|* sta part'|en quel-|la, L'ar- den-|* te fiamm' e'l|
 f4 e2 |[M:4/4] z2 c2 d3 d | =e2 f2 g3 g | f2 B2 c4 | B4 z4 | e8 | e4 d4 | c6 c2 | c4 c4 | B4 B4 | %18
w: fo- co,|Che mi con-|sum' et ard' in|o- gni lo-|co,|Ma|la mia|sor- te|di- spie-|tat' e|
 =A8 | B4 z2 B2 | B3 B c2 A2 | G4 =A2 c2 | =B2 c3 c A2 | G4 c4 | z2 c2 e2 e2 | d3 d d2 e2 | %26
w: fel-|la, Con|que- sto mio fug-|gi- re, Non|mi lev' il mar-|ti- re,|Per che la|nin- fa mia leg-|
 c2 f2 =e4 | f2 d2 d2 d2 | =e2 f2 d4 | e8 | e4 B4 | B8 | B4 c4 | d2 e2 e4- | e4 A4 | B8 | c8 | %37
w: gia- dra e bel-|la, Mi tien in|me- zo'l cor|ferm'|et in-|ten-|to, La|fiamm' el fo-|* co Et|l'a-|spro|
 B4 B4 | c8 | =B8 | z4 c4 | c6 d2 | e2 c2 f4 | f4 z2 e2- | e2 e2 d4 | c2 c2 c4 | c4 c2 _d2 | %47
w: mio tor-|men-|to,|Et|pur sa-|ro con- ten-|to, Che|_ mo- ren-|do per- lei|l'ar- so mio|
 B4 c4 | A8 | A4 c4 | B6 c2 | _d4 c4 | e2 c2 d4 | c4 z2 e2- | e2 e2 d4 | c2 c2 c4 | c4 c2 _d2 | %57
w: co- re,|Mor-|te non|sen- ti-|ra fiamm'|o do- lo-|re, Che|_ mo- ren-|do per- lei|l'ar- so mio|
 B4 c4 | A8 | A4 c4 | B6 c2 | _d4 c4- | c2 G2 A4 | G8 | F8 |] %65
w: co- re,|Mor-|te non|sen- ti-|ra fiamm'|_ o do-|lo-|re.|
V:4
 z6 |[K:Eb][K:bass] z6 | F,2 F,2 G,2 | A,4 E,2 | B,3 B, =A,2 | B,2 F,4 | B,,4 E,2 | E,E, A,2 C2 | %8
w: ||Io vo fug-|gend' in|que- sta part'|en quel-|la, L'ar-|den- te fiamm' e'l|
 B,4 E,2 |[M:4/4] z2 A,2 G,3 G, | C,2 F,2 E,3 E, | B,2 G,2 F,4 | B,,4 z4 | A,,8 | E,4 B,,4 | %15
w: fo- co,|Che mi con-|sum' et ard' in|o- gni lo-|co,|Ma|la mia|
 F,6 F,2 | F,4 C,4 | _D,4 B,,4 | F,8 | B,,4 z2 E,2 | E,3 E, A,2 F,2 | C,4 F,4 | z8 | z4 z2 C,2 | %24
w: sor- te|di- spie-|tat' e|fel-|la, Con|que- sto mio fug-|gi- re,||Per|
 F,4 E,4 | B,3 B, B,2 G,2 | A,2 F,2 C4 | F,2 G,2 G,2 G,2 | C2 F,2 B,4 | E,8 | E,4 E,4 | B,,8 | %32
w: che la|nin- fa mia leg-|gia- dra e bel-|la, Mi tien in|me- zo'l cor|ferm'|et in-|ten-|
 E,4 C,4 | B,,2 A,,2 E,4 | A,,4 z2 A,2 | G,8 | F,4 E,4- | E,4 _D,4 | C,8 | G,,8 | z4 C,4 | %41
w: to, La|fiamm' el fo-|co, Et|l'a-|spro mio|_ tor-|men-|to,|Et|
 F,6 B,,2 | E,2 F,2 B,,4 | F,4 z2 C,2- | C,2 C,2 G,4 | =E,2 F,2 C,4 | F,4 F,2 _D,2 | E,4 A,,4 | %48
w: pur sa-|ro con- ten-|to, Che|_ mo- ren-|do per- lei|l'ar- so mio|co- re,|
 _D,8 | A,,4 A,,4 | E,6 E,2 | B,,4 F,4 | E,2 A,2 G,4 | C,4 z2 C,2- | C,2 C,2 G,4 | =E,2 F,2 C,4 | %56
w: Mor-|te non|sen- ti-|ra fiamm'|o do- lo-|re, Che|_ mo- ren-|do per- lei|
 F,4 F,2 _D,2 | E,4 A,,4 | _D,8 | A,,4 A,,4 | E,6 E,2 | B,,4 F,4 | =E,4 F,4 | C,8 | F,8 |] %65
w: l'ar- so mio|co- re,|Mor-|te non|sen- ti-|ra fiamm'|o do-|lo-|re.|

